X: 1651
T: the Full of the Bag
%S:s:3 b:24(6+6+6)
B: O'Neill's 1850 #1651
O: Cronin
M: C|
L: 1/8
K: G
(DF) |: GDB,D G,B,DG | BGAB cdef | afge [1,3 dBAB | cABG AGEF :|[2,4 dgec | BGAF G2 :|
|: (GA) |: BcBA GABc | ded^c defg |[1,3 BcBA GABd | cBAG FGAc :|2,4 afge dgec | BGAF G2 :|
|: A2 |: Beef e^def | gebe geag |[1,3 fdd^c defg | afge dcBA :|[2,4 fe^df e=dB^c | dBAF E2 :|
